img/slide12/2013.svg

<svg height="208" viewBox="0 0 72 208" width="72" xmlns="http://www.w3.org/2000/svg"><path d="m-21.622297 139.15v-12.65h-25.6376742v-.25l13.2436329-13.7c4.3978856-4.566666 7.4380904-8.616666 9.1206151-12.15 1.6825247-3.5333336 2.5237866-7.3666664 2.5237866-11.5 0-3.1666664-.6080412-6.0833336-1.824123-8.75-1.2160817-2.6666664-2.85696-4.875-4.9226333-6.625s-4.4395321-3.1083336-7.1215762-4.075-5.5056866-1.45-8.4709274-1.45c-5.5639915 0-10.2783921 1.2083336-14.1432004 3.625-3.8648084 2.4166664-6.9133427 5.6416664-9.1456031 9.675l9.9951946 7.15c3.0651928-5.0666664 7.1465642-7.6 12.2441134-7.6 1.7991351 0 3.4066958.4166664 4.8226814 1.25 1.4159857.8333336 2.5237867 1.975 3.3234022 3.425.7996156 1.45 1.1994234 3.075 1.1994234 4.875 0 2.6333336-.766298 5.1916664-2.2988948 7.675-1.5325967 2.483334-3.8981259 5.425-7.0965881 8.825l-21.8894763 23.1.149928 9.15zm36.7823162.85c5.597309 0 10.478296-1.508334 14.6429601-4.525 4.1646642-3.016666 7.3381385-7.225 9.5204229-12.625s3.2734262-11.683334 3.2734262-18.85c0-5.6-.666346-10.6666664-1.9990389-15.2-1.3326928-4.5333336-3.1984623-8.3166664-5.597309-11.35s-5.2891235-5.3666664-8.6708313-7-7.1049178-2.45-11.16963-2.45c-4.1979817 0-8.01281408.8666664-11.44449782 2.6-3.43168374 1.7333336-6.31363101 4.175-8.64584334 7.325s-4.13134736 6.95-5.39740514 11.4c-1.2660577 4.45-1.8990869 9.3416664-1.8990869 14.675 0 5.6.666346 10.666666 1.9990389 15.2 1.33269286 4.533334 3.19846227 8.316666 5.59730898 11.35s5.28079474 5.366666 8.64584334 7 7.07992978 2.45 11.14464198 2.45zm.049976-12.95c-2.7320201 0-5.0975493-.933334-7.09658818-2.8-1.99903893-1.866666-3.51497652-4.533334-4.54781356-8-1.03283703-3.466666-1.54925516-7.55-1.54925516-12.25 0-7.3666664 1.17443537-13.05 3.5233061-17.05 2.34887074-4 5.572321-6 9.6703508-6 4.1313474 0 7.3547976 2.05 9.6703508 6.15s3.4733301 9.7333336 3.4733301 16.9c0 7.366666-1.1577769 13.05-3.4733301 17.05s-5.5390034 6-9.6703508 6zm65.5684767 12.1v-70.3h-11.194618l-21.2897645 15.2 6.6967804 10.35 11.7943296-8.85v53.6zm35.4829411.85c4.531155 0 8.595867-.816666 12.194137-2.45s6.421913-3.966666 8.470928-7 3.073522-6.533334 3.073522-10.5c0-4-.982861-7.466666-2.948582-10.4-1.965722-2.933334-4.681083-5.2-8.146084-6.8v-.25c2.865289-1.7 5.08922-3.9166664 6.671792-6.65 1.582573-2.7333336 2.373859-5.7833336 2.373859-9.15 0-2.9333336-.591382-5.6-1.774147-8s-2.790325-4.3833336-4.822681-5.95c-2.032357-1.5666664-4.414544-2.7666664-7.146564-3.6-2.732021-.8333336-5.680603-1.25-8.845748-1.25-5.064231 0-9.528752 1.15-13.393561 3.45-3.8648079 2.3-6.6134864 5.3166664-8.2460351 9.05l11.0946661 5.95c2.23226-3.9333336 5.647285-5.9 10.245074-5.9 2.632069 0 4.83934.8 6.621817 2.4 1.782476 1.6 2.673714 3.65 2.673714 6.15 0 2.4333336-.766298 4.425-2.298894 5.975-1.532597 1.55-3.798174 2.325-6.796733 2.325h-6.19702v11.3h5.047573c3.698222 0 6.555182.891666 8.570879 2.675 2.015698 1.783334 3.023547 4.025 3.023547 6.725 0 2.833334-1.007849 5.1-3.023547 6.8-2.015697 1.7-4.472849 2.55-7.371456 2.55-6.097068 0-10.145122-2.65-12.144161-7.95l-12.0941857 5.05c1.7991351 4.566666 4.930963 8.283334 9.3954827 11.15 4.46452 2.866666 9.728657 4.3 15.792408 4.3z" fill="#fff" transform="matrix(0 -1 1 0 -68 140)"/></svg>

<?xml version="1.0" encoding="UTF-8"?>
<svg width="72px" height="208px" viewBox="0 0 72 208" version="1.1" xmlns="http://www.w3.org/2000/svg" xmlns:xlink="http://www.w3.org/1999/xlink">
    <title>2013</title>
    <g id="2013" stroke="none" stroke-width="1" fill="none" fill-rule="evenodd">
        <path d="M-21.622297,139.15 L-21.622297,126.5 L-47.2599712,126.5 L-47.2599712,126.25 L-34.0163383,112.55 C-29.6184527,107.983334 -26.5782479,103.933334 -24.8957232,100.4 C-23.2131985,96.8666664 -22.3719366,93.0333336 -22.3719366,88.9 C-22.3719366,85.7333336 -22.9799778,82.8166664 -24.1960596,80.15 C-25.4121413,77.4833336 -27.0530196,75.275 -29.1186929,73.525 C-31.1843662,71.775 -33.558225,70.4166664 -36.2402691,69.45 C-38.9223132,68.4833336 -41.7459557,68 -44.7111965,68 C-50.275188,68 -54.9895886,69.2083336 -58.8543969,71.625 C-62.7192053,74.0416664 -65.7677396,77.2666664 -68,81.3 L-58.0048054,88.45 C-54.9396126,83.3833336 -50.8582412,80.85 -45.760692,80.85 C-43.9615569,80.85 -42.3539962,81.2666664 -40.9380106,82.1 C-39.5220249,82.9333336 -38.4142239,84.075 -37.6146084,85.525 C-36.8149928,86.975 -36.415185,88.6 -36.415185,90.4 C-36.415185,93.0333336 -37.181483,95.5916664 -38.7140798,98.075 C-40.2466765,100.558334 -42.6122057,103.5 -45.8106679,106.9 L-67.7001442,130 L-67.5502162,139.15 L-21.622297,139.15 Z M15.1600192,140 C20.7573282,140 25.6383152,138.491666 29.8029793,135.475 C33.9676435,132.458334 37.1411178,128.25 39.3234022,122.85 C41.5056866,117.45 42.5968284,111.166666 42.5968284,104 C42.5968284,98.4 41.9304824,93.3333336 40.5977895,88.8 C39.2650967,84.2666664 37.3993272,80.4833336 35.0004805,77.45 C32.6016338,74.4166664 29.711357,72.0833336 26.3296492,70.45 C22.9479414,68.8166664 19.2247314,68 15.1600192,68 C10.9620375,68 7.14720512,68.8666664 3.71552138,70.6 C0.283837644,72.3333336 -2.59810963,74.775 -4.93032196,77.925 C-7.26253429,81.075 -9.06166932,84.875 -10.3277271,89.325 C-11.5937848,93.775 -12.226814,98.6666664 -12.226814,104 C-12.226814,109.6 -11.560468,114.666666 -10.2277751,119.2 C-8.89508224,123.733334 -7.02931283,127.516666 -4.63046612,130.55 C-2.23161941,133.583334 0.650328622,135.916666 4.01537722,137.55 C7.38042582,139.183334 11.095307,140 15.1600192,140 Z M15.2099952,127.05 C12.4779751,127.05 10.1124459,126.116666 8.11340702,124.25 C6.11436809,122.383334 4.5984305,119.716666 3.56559346,116.25 C2.53275643,112.783334 2.0163383,108.7 2.0163383,104 C2.0163383,96.6333336 3.19077367,90.95 5.5396444,86.95 C7.88851514,82.95 11.1119654,80.95 15.2099952,80.95 C19.3413426,80.95 22.5647928,83 24.880346,87.1 C27.1958992,91.2 28.3536761,96.8333336 28.3536761,104 C28.3536761,111.366666 27.1958992,117.05 24.880346,121.05 C22.5647928,125.05 19.3413426,127.05 15.2099952,127.05 Z M80.7784719,139.15 L80.7784719,68.85 L69.5838539,68.85 L48.2940894,84.05 L54.9908698,94.4 L66.7851994,85.55 L66.7851994,139.15 L80.7784719,139.15 Z M116.261413,140 C120.792568,140 124.85728,139.183334 128.45555,137.55 C132.05382,135.916666 134.877463,133.583334 136.926478,130.55 C138.975493,127.516666 140,124.016666 140,120.05 C140,116.05 139.017139,112.583334 137.051418,109.65 C135.085696,106.716666 132.370335,104.45 128.905334,102.85 L128.905334,102.6 C131.770623,100.9 133.994554,98.6833336 135.577126,95.95 C137.159699,93.2166664 137.950985,90.1666664 137.950985,86.8 C137.950985,83.8666664 137.359603,81.2 136.176838,78.8 C134.994073,76.4 133.386513,74.4166664 131.354157,72.85 C129.3218,71.2833336 126.939613,70.0833336 124.207593,69.25 C121.475572,68.4166664 118.52699,68 115.361845,68 C110.297614,68 105.833093,69.15 101.968284,71.45 C98.1034761,73.75 95.3547976,76.7666664 93.7222489,80.5 L104.816915,86.45 C107.049175,82.5166664 110.4642,80.55 115.061989,80.55 C117.694058,80.55 119.901329,81.35 121.683806,82.95 C123.466282,84.55 124.35752,86.6 124.35752,89.1 C124.35752,91.5333336 123.591222,93.525 122.058626,95.075 C120.526029,96.625 118.260452,97.4 115.261893,97.4 L109.064873,97.4 L109.064873,108.7 L114.112446,108.7 C117.810668,108.7 120.667628,109.591666 122.683325,111.375 C124.699023,113.158334 125.706872,115.4 125.706872,118.1 C125.706872,120.933334 124.699023,123.2 122.683325,124.9 C120.667628,126.6 118.210476,127.45 115.311869,127.45 C109.214801,127.45 105.166747,124.8 103.167708,119.5 L91.0735223,124.55 C92.8726574,129.116666 96.0044853,132.833334 100.469005,135.7 C104.933525,138.566666 110.197662,140 116.261413,140 Z" fill="#FFFFFF" fill-rule="nonzero" transform="translate(36.000000, 104.000000) rotate(-90.000000) translate(-36.000000, -104.000000) "></path>
    </g>
</svg>
